icon/lg/authy.svg

<?xml version="1.0" encoding="UTF-8"?>
<svg viewBox="0 0 256 256" version="1.1" xmlns="http://www.w3.org/2000/svg" preserveAspectRatio="xMidYMid" height="1em" width="1em">
  <g>
    <path d="M256,127.997518 C256,198.696135 198.694024,256 127.996691,256 C57.3043214,256 1.42108547e-14,198.696135 1.42108547e-14,127.997518 C1.42108547e-14,57.3046917 57.3043214,0 127.996691,0 C198.694024,0 256,57.3046917 256,127.997518 L256,127.997518 Z" fill="#F22E46"/>
    <path d="M117.024206,100.8896 L147.715303,131.570787 C152.145755,136.006194 159.337703,136.006194 163.77889,131.570787 C168.210168,127.134555 168.220077,119.948387 163.77889,115.512155 L133.086142,84.8194065 C111.124645,62.8537806 75.6306581,62.5003355 53.2042323,83.7037419 C52.9969548,83.8779871 52.7896774,84.0613161 52.5989161,84.2520774 C52.501471,84.3503484 52.4213677,84.4544 52.3239226,84.5419355 C52.2231742,84.637729 52.1224258,84.7244387 52.0266323,84.8202323 C51.8333935,85.013471 51.6558452,85.2157935 51.4865548,85.4172903 C30.2724129,107.854452 30.6374194,143.349265 52.5997419,165.314065 L83.2924903,195.998555 C87.7320258,200.43231 94.9148903,200.43231 99.3536,195.998555 C103.796439,191.562323 103.796439,184.366245 99.3651613,179.939923 L68.6724129,149.248 C55.2737032,135.855071 55.1836903,114.119019 68.3941161,100.611303 C81.9001806,87.4008774 103.624671,87.496671 117.024206,100.8896 Z" fill="#FFFFFF"/>
    <path d="M156.63649,60.0171355 C152.201084,64.4541935 152.201084,71.6395355 156.648052,76.0757677 L187.329239,106.768516 C200.71969,120.161445 200.8064,141.894194 187.5968,155.405213 C174.086606,168.604077 152.369548,168.517368 138.974142,155.122787 L108.282219,124.434168 C103.84351,119.99711 96.6490839,119.99711 92.2161548,124.434168 C87.7733161,128.867097 87.7733161,136.075561 92.2161548,140.499406 L122.898168,171.192981 C144.866271,193.157781 180.356129,193.515355 202.786684,172.308645 C202.994787,172.125316 203.191329,171.954374 203.397781,171.76031 C203.491097,171.665342 203.578632,171.567897 203.670297,171.470452 C203.769394,171.375484 203.866839,171.287123 203.960155,171.181419 C204.156697,170.99809 204.325161,170.796594 204.500232,170.586839 C225.7152,148.158761 225.360929,112.67551 203.397781,90.6983226 L172.705858,60.0163097 C168.270452,55.573471 161.067768,55.573471 156.63649,60.0171355 Z" fill="#F5B1B2"/>
  </g>
</svg>

<svg width="256" height="256" xmlns="http://www.w3.org/2000/svg" preserveAspectRatio="xMidYMid"><path d="M256 127.998C256 198.696 198.694 256 127.997 256 57.304 256 0 198.696 0 127.998 0 57.305 57.304 0 127.997 0 198.694 0 256 57.305 256 127.998Z" fill="#F22E46"/><path d="m117.024 100.89 30.691 30.68c4.43 4.436 11.623 4.436 16.064 0 4.431-4.435 4.441-11.622 0-16.058L133.086 84.82C111.125 62.854 75.631 62.5 53.204 83.704a9.536 9.536 0 0 0-.605.548c-.098.098-.178.202-.275.29-.1.096-.202.182-.297.278-.194.193-.371.396-.54.597-21.215 22.437-20.85 57.932 1.113 79.897L83.292 196c4.44 4.433 11.623 4.433 16.062 0 4.442-4.437 4.442-11.633.011-16.06l-30.693-30.691c-13.398-13.393-13.488-35.129-.278-48.637 13.506-13.21 35.23-13.114 48.63.279Z" fill="#FFF"/><path d="M156.636 60.017c-4.435 4.437-4.435 11.623.012 16.059l30.681 30.693c13.39 13.392 13.477 35.125.268 48.636-13.51 13.2-35.227 13.112-48.623-.282l-30.692-30.689c-4.438-4.437-11.633-4.437-16.066 0-4.443 4.433-4.443 11.642 0 16.065l30.682 30.694c21.968 21.965 57.458 22.322 79.889 1.116.208-.184.404-.355.61-.549.094-.095.182-.192.273-.29.1-.095.197-.183.29-.289.197-.183.365-.384.54-.594 21.215-22.428 20.86-57.911-1.102-79.889l-30.692-30.682c-4.436-4.443-11.638-4.443-16.07.001Z" fill="#F5B1B2"/></svg>
